Assets/ico-checkmark.svg

<svg width="24" height="24" viewBox="0 0 24 24" fill="none" xmlns="http://www.w3.org/2000/svg">
<path fill-rule="evenodd" clip-rule="evenodd" d="M1 12C1 5.92487 5.92487 1 12 1C18.0751 1 23 5.92487 23 12C23 18.0751 18.0751 23 12 23C5.92487 23 1 18.0751 1 12ZM18.4158 9.70405C18.8055 9.31268 18.8041 8.67952 18.4127 8.28984L17.7041 7.58426C17.3127 7.19458 16.6796 7.19594 16.2899 7.58731L10.5183 13.3838L7.19723 10.1089C6.80398 9.72117 6.17083 9.7256 5.78305 10.1189L5.08092 10.8309C4.69314 11.2241 4.69758 11.8573 5.09083 12.2451L9.82912 16.9174C10.221 17.3039 10.8515 17.301 11.2399 16.911L18.4158 9.70405Z" fill="white"/>
</svg>

<svg xmlns="http://www.w3.org/2000/svg" width="24" height="24" fill="none" viewBox="0 0 24 24"><path fill="#fff" fill-rule="evenodd" d="M1 12C1 5.925 5.925 1 12 1s11 4.925 11 11-4.925 11-11 11S1 18.075 1 12m17.416-2.296a1 1 0 0 0-.003-1.414l-.709-.706a1 1 0 0 0-1.414.003l-5.772 5.797-3.32-3.275a1 1 0 0 0-1.415.01l-.702.712a1 1 0 0 0 .01 1.414l4.738 4.672a1 1 0 0 0 1.41-.006z" clip-rule="evenodd"/></svg>
